X:26
T: The Purple Boy, S. 82
N: I0525
O: Irland
S: O BOYLE, Sean: 25 Irish Folksongs, Dublin 1976]
R: Ballade, Sektenlied]
M: 3/4
L: 1/8
K: C
 | C2E2G2 | AA3E2 | DD3C2 | C6
c2B2c2 | ddd2c2 | B4A2 | G6
B2c2e2 | dd4c | cc3B2 | A6
BcB2A2 | BBB2AG | A4G2 | E4D2 | C6
c4GA | E6 | D4C2 | C6

